X:105
T:Bon Ton. VWMLa.105
%%VWML:Anon2-3049-p60-0
F:http://www.vwml.org/record/Anon2/3049/p60
S:Anon. MS, late 18thC, Vaughan Williams Mem. Library
O:England;Yorkshire
Z:vmp/efdss.Simon Wilson. Reviewed PJH 2008.
M:C|
L:1/8
Q:1/2=75
K:G
(B/c/d) GG AGBG|(B/c/d) GBA2D2|\
(B/c/d) Gf gfed|^c/d/e Acd2D2:|
|:dBed cBAB|cAdc BAG2|\
(B/c/d) GG AGBG|(B/c/d) GB ABG2:|
T:Hey to the Camp. VWMLa.106
R:jig
S:Anon. MS, late 18thC, Vaughan Williams Mem. Library
O:England;Yorkshire
Z:vmp/efdss.Simon Wilson. Reviewed PJH 2008.
M:6/8
L:1/8
Q:3/8=120
K:C
(c/d/e).c dBG|(A/B/c).E D2C|(E/F/G).E G2f|(e/f/g).e d3|\
(c/d/e).c dBG|(A/B/c).E D2C|E/F/G.E G2f|(e/f/g).e c3:|
|:(e/f/g).e gec|(f/g/a).aa2f|(e/f/g).e gec|(B/c/d).B G3|\
(e/f/g).e gec|(f/g/a).a a2f|ege dcB|cGE C3:|
